icons/ic_transhcan.svg

<svg width="25" height="24" viewBox="0 0 25 24" fill="none" xmlns="http://www.w3.org/2000/svg">
<g clip-path="url(#clip0)">
<g clip-path="url(#clip1)">
<path d="M14.207 17H14.957C15.0565 17 15.1519 16.9605 15.2222 16.8902C15.2925 16.8198 15.332 16.7245 15.332 16.625V9.875C15.332 9.77554 15.2925 9.68016 15.2222 9.60984C15.1519 9.53951 15.0565 9.5 14.957 9.5H14.207C14.1076 9.5 14.0122 9.53951 13.9419 9.60984C13.8715 9.68016 13.832 9.77554 13.832 9.875V16.625C13.832 16.7245 13.8715 16.8198 13.9419 16.8902C14.0122 16.9605 14.1076 17 14.207 17ZM19.332 6.5H16.7567L15.6942 4.72813C15.5609 4.50594 15.3723 4.32209 15.1467 4.19449C14.9212 4.06688 14.6665 3.99988 14.4073 4H11.2567C10.9977 3.99998 10.7431 4.06704 10.5177 4.19464C10.2923 4.32224 10.1038 4.50603 9.97047 4.72813L8.90734 6.5H6.33203C6.19942 6.5 6.07225 6.55268 5.97848 6.64645C5.88471 6.74022 5.83203 6.86739 5.83203 7V7.5C5.83203 7.63261 5.88471 7.75979 5.97848 7.85355C6.07225 7.94732 6.19942 8 6.33203 8H6.83203V18.5C6.83203 18.8978 6.99007 19.2794 7.27137 19.5607C7.55268 19.842 7.93421 20 8.33203 20H17.332C17.7299 20 18.1114 19.842 18.3927 19.5607C18.674 19.2794 18.832 18.8978 18.832 18.5V8H19.332C19.4646 8 19.5918 7.94732 19.6856 7.85355C19.7794 7.75979 19.832 7.63261 19.832 7.5V7C19.832 6.86739 19.7794 6.74022 19.6856 6.64645C19.5918 6.55268 19.4646 6.5 19.332 6.5ZM11.202 5.59094C11.2187 5.56312 11.2424 5.54012 11.2707 5.52418C11.2989 5.50824 11.3308 5.49991 11.3633 5.5H14.3008C14.3332 5.49996 14.365 5.50832 14.3932 5.52426C14.4214 5.54019 14.445 5.56317 14.4617 5.59094L15.0073 6.5H10.6567L11.202 5.59094ZM17.332 18.5H8.33203V8H17.332V18.5ZM10.707 17H11.457C11.5565 17 11.6519 16.9605 11.7222 16.8902C11.7925 16.8198 11.832 16.7245 11.832 16.625V9.875C11.832 9.77554 11.7925 9.68016 11.7222 9.60984C11.6519 9.53951 11.5565 9.5 11.457 9.5H10.707C10.6076 9.5 10.5122 9.53951 10.4419 9.60984C10.3715 9.68016 10.332 9.77554 10.332 9.875V16.625C10.332 16.7245 10.3715 16.8198 10.4419 16.8902C10.5122 16.9605 10.6076 17 10.707 17Z" fill="#222532"/>
</g>
</g>
<defs>
<clipPath id="clip0">
<path d="M24.832 0H0.832031V24H24.832V0Z" fill="white"/>
</clipPath>
<clipPath id="clip1">
<rect x="5.83203" y="4" width="14" height="16" fill="white"/>
</clipPath>
</defs>
</svg>

<?xml version="1.0" encoding="utf-8"?>
<!-- Generator: Adobe Illustrator 24.0.0, SVG Export Plug-In . SVG Version: 6.00 Build 0)  -->
<svg version="1.1" id="Layer_1" xmlns="http://www.w3.org/2000/svg" xmlns:xlink="http://www.w3.org/1999/xlink" x="0px" y="0px"
	 viewBox="0 0 25 24" style="enable-background:new 0 0 25 24;" xml:space="preserve">
<style type="text/css">
	.st0{clip-path:url(#SVGID_2_);}
	.st1{fill:#202433;}
</style>
<g>
	<g>
		<defs>
			<rect id="SVGID_1_" x="5.8" y="4" width="14" height="16"/>
		</defs>
		<clipPath id="SVGID_2_">
			<use xlink:href="#SVGID_1_"  style="overflow:visible;"/>
		</clipPath>
		<g class="st0">
			<path class="st1" d="M14.2,17H15c0.1,0,0.2,0,0.3-0.1s0.1-0.2,0.1-0.3V9.9c0-0.1,0-0.2-0.1-0.3S15.1,9.5,15,9.5h-0.8
				c-0.1,0-0.2,0-0.3,0.1s-0.1,0.2-0.1,0.3v6.8c0,0.1,0,0.2,0.1,0.3C14,17,14.1,17,14.2,17z M19.3,6.5h-2.6l-1.1-1.8
				c-0.1-0.2-0.3-0.4-0.5-0.5C14.9,4.1,14.7,4,14.4,4h-3.2c-0.3,0-0.5,0.1-0.7,0.2S10.1,4.5,10,4.7L8.9,6.5H6.3
				C6.2,6.5,6.1,6.6,6,6.6S5.8,6.9,5.8,7v0.5c0,0.1,0.1,0.3,0.1,0.4C6.1,7.9,6.2,8,6.3,8h0.5v10.5c0,0.4,0.2,0.8,0.4,1.1
				C7.6,19.8,7.9,20,8.3,20h9c0.4,0,0.8-0.2,1.1-0.4s0.4-0.7,0.4-1.1V8h0.5c0.1,0,0.3-0.1,0.4-0.1c0.1-0.1,0.1-0.2,0.1-0.4V7
				c0-0.1-0.1-0.3-0.1-0.4S19.5,6.5,19.3,6.5z M11.2,5.6C11.2,5.6,11.2,5.5,11.2,5.6c0.1-0.1,0.1-0.1,0.2-0.1h2.9h0.1
				c0,0,0.1,0,0.1,0.1L15,6.5h-4.4L11.2,5.6z M17.3,18.5h-9V8h9V18.5z M10.7,17h0.8c0.1,0,0.2,0,0.3-0.1s0.1-0.2,0.1-0.3V9.9
				c0-0.1,0-0.2-0.1-0.3s-0.2-0.1-0.3-0.1h-0.8c-0.1,0-0.2,0-0.3,0.1s-0.1,0.2-0.1,0.3v6.8c0,0.1,0,0.2,0.1,0.3
				C10.5,17,10.6,17,10.7,17z"/>
		</g>
	</g>
</g>
</svg>
